packages/icons/raw/imported/NotificationsBellAlarm.svg

<svg width="32" height="32" viewBox="0 0 32 32" fill="none" xmlns="http://www.w3.org/2000/svg">
<path d="M18.702 22.6852H19.202V22.1852H18.702V22.6852ZM12.9268 22.6852V22.1852H12.4268V22.6852H12.9268ZM23.9923 21.2487L23.4943 21.2943V21.2943L23.9923 21.2487ZM8.01026 21.2236L8.50754 21.2757L8.01026 21.2236ZM18.1657 9.02725H17.6657V9.35943L17.9719 9.48817L18.1657 9.02725ZM21.5402 13.0573L22.0167 12.9057L21.5402 13.0573ZM10.4301 13.1531L10.9086 13.298L10.9086 13.298L10.4301 13.1531ZM13.8343 9.02724L14.0281 9.48816L14.3343 9.35942V9.02724H13.8343ZM23.7817 20.6855L24.2088 20.4255V20.4255L23.7817 20.6855ZM22.4974 18.5762L22.0703 18.8362L22.4974 18.5762ZM21.9259 16.8057L21.4274 16.8444L21.9259 16.8057ZM21.7108 14.0349L21.2123 14.0736V14.0736L21.7108 14.0349ZM8.19919 20.7036L8.63256 20.953L8.63256 20.953L8.19919 20.7036ZM9.46866 18.4976L9.90202 18.747H9.90202L9.46866 18.4976ZM9.98073 16.9119L10.4781 16.963L9.98073 16.9119ZM10.2871 13.9339L9.78973 13.8827L10.2871 13.9339ZM16.5 19.1667C16.5 18.8905 16.2761 18.6667 16 18.6667C15.7239 18.6667 15.5 18.8905 15.5 19.1667H16.5ZM15.5 19.8704C15.5 20.1465 15.7239 20.3704 16 20.3704C16.2761 20.3704 16.5 20.1465 16.5 19.8704H15.5ZM16.5 12.1296C16.5 11.8534 16.2761 11.6296 16 11.6296C15.7239 11.6296 15.5 11.8534 15.5 12.1296H16.5ZM15.5 16.3518C15.5 16.6279 15.7239 16.8518 16 16.8518C16.2761 16.8518 16.5 16.6279 16.5 16.3518H15.5ZM18.202 22.6852C18.202 23.9517 17.1452 25 15.8144 25V26C17.6732 26 19.202 24.5279 19.202 22.6852H18.202ZM15.8144 25C14.4837 25 13.4268 23.9517 13.4268 22.6852H12.4268C12.4268 24.5279 13.9556 26 15.8144 26V25ZM12.9268 23.1852H18.702V22.1852H12.9268V23.1852ZM9.17164 23.1852H22.8284V22.1852H9.17164V23.1852ZM22.8284 23.1852C23.391 23.1852 23.8519 22.9506 24.1478 22.5539C24.4334 22.1711 24.5339 21.6816 24.4902 21.2032L23.4943 21.2943C23.5208 21.5839 23.4533 21.8125 23.3463 21.956C23.2496 22.0855 23.0934 22.1852 22.8284 22.1852V23.1852ZM7.51298 21.1715C7.4623 21.6553 7.55841 22.1521 7.84296 22.5414C8.13808 22.9451 8.60246 23.1852 9.17164 23.1852V22.1852C8.90417 22.1852 8.74708 22.0837 8.65029 21.9513C8.54292 21.8044 8.47667 21.5703 8.50754 21.2757L7.51298 21.1715ZM14.3343 8.61111C14.3343 7.73328 15.068 7 16 7V6C14.5399 6 13.3343 7.15708 13.3343 8.61111H14.3343ZM16 7C16.9321 7 17.6657 7.73328 17.6657 8.61111H18.6657C18.6657 7.15708 17.4601 6 16 6V7ZM17.9719 9.48817C19.9205 10.3074 20.7671 12.2763 21.0638 13.2089L22.0167 12.9057C21.7 11.9103 20.7337 9.5645 18.3595 8.56633L17.9719 9.48817ZM18.6657 9.02725V8.61111H17.6657V9.02725H18.6657ZM10.9086 13.298C11.1755 12.4165 12.0108 10.3363 14.0281 9.48816L13.6405 8.56632C11.1854 9.59854 10.2349 12.0721 9.95151 13.0082L10.9086 13.298ZM14.3343 9.02724V8.61111H13.3343V9.02724H14.3343ZM24.2088 20.4255L22.9245 18.3162L22.0703 18.8362L23.3547 20.9456L24.2088 20.4255ZM22.4244 16.767L22.2093 13.9962L21.2123 14.0736L21.4274 16.8444L22.4244 16.767ZM8.63256 20.953L9.90202 18.747L9.03529 18.2482L7.76582 20.4542L8.63256 20.953ZM10.4781 16.963L10.7845 13.9851L9.78973 13.8827L9.48335 16.8607L10.4781 16.963ZM24.4902 21.2032C24.4616 20.8908 24.331 20.6262 24.2088 20.4255L23.3547 20.9456C23.4435 21.0915 23.4859 21.2025 23.4943 21.2943L24.4902 21.2032ZM8.50754 21.2757C8.5164 21.191 8.55441 21.0888 8.63256 20.953L7.76582 20.4542C7.65807 20.6414 7.54294 20.8855 7.51298 21.1715L8.50754 21.2757ZM22.9245 18.3162C22.6384 17.8462 22.467 17.3155 22.4244 16.767L21.4274 16.8444C21.4822 17.5496 21.7025 18.232 22.0703 18.8362L22.9245 18.3162ZM9.90202 18.747C10.2172 18.1994 10.4134 17.5915 10.4781 16.963L9.48335 16.8607C9.43306 17.3495 9.28039 17.8223 9.03529 18.2482L9.90202 18.747ZM9.95151 13.0082C9.8609 13.3074 9.81819 13.606 9.78973 13.8827L10.7845 13.9851C10.8104 13.733 10.8452 13.5075 10.9086 13.298L9.95151 13.0082ZM21.0638 13.2089C21.1476 13.4724 21.1877 13.7576 21.2123 14.0736L22.2093 13.9962C22.1823 13.649 22.1345 13.276 22.0167 12.9057L21.0638 13.2089ZM15.5 19.1667V19.8704H16.5V19.1667H15.5ZM15.5 12.1296V16.3518H16.5V12.1296H15.5Z" fill="black"/>
</svg>

<svg width="32" height="32" fill="none" xmlns="http://www.w3.org/2000/svg"><path d="M18.702 22.685h.5v-.5h-.5v.5Zm-5.775 0v-.5h-.5v.5h.5Zm11.065-1.436-.498.045.498-.045ZM8.01 21.224l.498.052-.498-.052ZM18.166 9.027h-.5v.332l.306.13.194-.462Zm3.374 4.03.477-.151-.477.151Zm-11.11.096.479.145-.479-.145Zm3.404-4.126.194.461.306-.129v-.332h-.5Zm9.948 11.659.427-.26-.427.26Zm-1.285-2.11-.427.26.427-.26Zm-.571-1.77-.499.038.499-.038Zm-.215-2.771-.499.039.499-.04ZM8.199 20.704l.434.249-.434-.25Zm1.27-2.206.433.249-.433-.25Zm.512-1.586.497.051-.497-.051Zm.306-2.978-.497-.051.497.05Zm6.213 5.233a.5.5 0 1 0-1 0h1Zm-1 .703a.5.5 0 0 0 1 0h-1Zm1-7.74a.5.5 0 1 0-1 0h1Zm-1 4.222a.5.5 0 0 0 1 0h-1Zm2.702 6.333c0 1.267-1.057 2.315-2.388 2.315v1c1.86 0 3.388-1.472 3.388-3.315h-1ZM15.814 25c-1.33 0-2.387-1.048-2.387-2.315h-1c0 1.843 1.529 3.315 3.387 3.315v-1Zm-2.887-1.815h5.775v-1h-5.775v1Zm-3.755 0h13.656v-1H9.172v1Zm13.656 0c.563 0 1.024-.234 1.32-.631.285-.383.386-.872.342-1.35l-.996.09c.027.29-.04.518-.148.662-.096.13-.253.23-.518.23v1ZM7.513 21.172c-.05.483.045.98.33 1.37.295.403.76.643 1.329.643v-1c-.268 0-.425-.101-.522-.234-.107-.147-.173-.38-.142-.675l-.995-.104Zm6.821-12.56C14.334 7.732 15.068 7 16 7V6c-1.46 0-2.666 1.157-2.666 2.611h1ZM16 7c.932 0 1.666.733 1.666 1.611h1C18.666 7.157 17.46 6 16 6v1Zm1.972 2.488c1.948.82 2.795 2.788 3.092 3.72l.953-.302c-.317-.996-1.283-3.341-3.657-4.34l-.388.922Zm.694-.46V8.61h-1v.416h1Zm-7.757 4.27c.266-.882 1.102-2.962 3.12-3.81l-.389-.922c-2.455 1.033-3.405 3.506-3.688 4.442l.957.29Zm3.425-4.27V8.61h-1v.416h1Zm9.875 11.397-1.285-2.109-.854.52 1.285 2.11.854-.52Zm-1.785-3.658-.215-2.77-.997.077.215 2.77.997-.077ZM8.633 20.953l1.269-2.206-.867-.499-1.27 2.206.868.499Zm1.845-3.99.306-2.978-.994-.102-.307 2.978.995.102Zm14.012 4.24a1.825 1.825 0 0 0-.281-.777l-.854.52a.851.851 0 0 1 .14.348l.995-.09Zm-15.982.073a.853.853 0 0 1 .125-.323l-.867-.499a1.827 1.827 0 0 0-.253.718l.995.104Zm14.416-2.96a3.5 3.5 0 0 1-.5-1.549l-.997.077c.055.706.276 1.388.643 1.992l.854-.52Zm-13.022.431a4.5 4.5 0 0 0 .576-1.784l-.995-.102a3.5 3.5 0 0 1-.448 1.387l.867.499Zm.05-5.739c-.091.3-.134.598-.162.875l.995.102c.025-.252.06-.477.124-.687l-.957-.29Zm11.112.2c.084.264.124.55.148.866l.997-.078a4.8 4.8 0 0 0-.192-1.09l-.953.303ZM15.5 19.168v.703h1v-.703h-1Zm0-7.037v4.222h1V12.13h-1Z" fill="#000"/></svg>
